X:1
T:JS Bach Musikalisches Opfer - Canon a 2 / I (Cancrizans)
T:Musikalisches Opfer: Canon a 2 - I (Cancrizans)
T:Johann Sebastian Bach
T:BWV 1079
%%score 1 2
L:1/8
M:4/4
K:Bb
V:1 treble nm="Flauto dolce tenore in Do" snm="Rec. t."
V:2 treble nm="Flauto dolce tenore in Do" snm="Rec. t."
V:1
 G2 B2 d2 g2 | ^fgab c'bag | adac' bag^f | =e^fgb agfe | def_a gfed | cdef edcB | ABcd cBAe | %7
 dcBg ^f=edc | BABd gdcd | B4 G4 | A4 B4 | c2 G2 D2 ^F2 | G2 _A2 =A2 B2- | B2 =B4 c2- | %14
 c2 ^c4 d2- | d2 z2 ^F4 | e4 d4 | B4 G4 |] %18
V:2
 G4 B4 | d4 e4 | ^F4 z2 d2- | d2 ^c4 =c2- | c2 =B4 _B2- | B2 A2 _A2 G2 | ^F2 D2 G2 c2 | B4 A4 | %8
 G4 B4 | dcdg dBAB | cd=e^f gBcd | _eABc dcBA | Bcde fedc | defg _afed | =e^fga bg^f=e | %15
 ^fgab c'ada | gabc' bag^f | g2 d2 B2 G2 |] %18

